resources/svg/youtube-footer.svg

<svg width="32" height="32" viewBox="0 0 32 32" fill="none" xmlns="http://www.w3.org/2000/svg">
<path fill-rule="evenodd" clip-rule="evenodd" d="M23.0025 16.8384C23.0025 17.9177 22.8692 18.997 22.8692 18.997C22.8692 18.997 22.7391 19.9154 22.3391 20.3205C21.8324 20.8514 21.2639 20.8539 21.0031 20.8847C19.137 21.0198 16.335 21.0239 16.335 21.0239C16.335 21.0239 12.8679 20.9922 11.8011 20.8906C11.5044 20.8347 10.8376 20.8514 10.3309 20.3205C9.93087 19.9154 9.80085 18.997 9.80085 18.997C9.80085 18.997 9.6675 17.9177 9.6675 16.8384V15.8266C9.6675 14.7473 9.80085 13.6688 9.80085 13.6688C9.80085 13.6688 9.93087 12.7496 10.3309 12.3445C10.8376 11.8136 11.4061 11.8111 11.6669 11.7803C13.533 11.6452 16.3325 11.6452 16.3325 11.6452H16.3375C16.3375 11.6452 19.137 11.6452 21.0031 11.7803C21.2639 11.8111 21.8324 11.8136 22.3391 12.3445C22.7391 12.7496 22.8692 13.6688 22.8692 13.6688C22.8692 13.6688 23.0025 14.7473 23.0025 15.8266V16.8384ZM16.335 3C8.96991 3 3 8.96991 3 16.335C3 23.6993 8.96991 29.67 16.335 29.67C23.7001 29.67 29.67 23.6993 29.67 16.335C29.67 8.96991 23.7001 3 16.335 3Z" fill="#EA412C"/>
<path fill-rule="evenodd" clip-rule="evenodd" d="M14.9579 18.0645L18.5608 16.1976L14.957 14.3174L14.9579 18.0645Z" fill="#EA412C"/>
</svg>

<svg width="32" height="32" fill="none" xmlns="http://www.w3.org/2000/svg"><path fill-rule="evenodd" clip-rule="evenodd" d="m23 16.8-.1 2.2s-.2 1-.6 1.3c-.5.6-1 .6-1.3.6l-4.7.1-4.5-.1c-.3 0-1 0-1.5-.6-.4-.4-.5-1.3-.5-1.3l-.1-2.2v-1l.1-2.1s.1-1 .5-1.4c.5-.5 1.1-.5 1.4-.5 1.8-.2 4.6-.2 4.6-.2s2.8 0 4.7.2c.3 0 .8 0 1.3.5.4.4.6 1.4.6 1.4l.1 2.1v1ZM16.3 3a13.3 13.3 0 1 0 0 26.7 13.3 13.3 0 0 0 0-26.7Z" fill="#EA412C"/><path fill-rule="evenodd" clip-rule="evenodd" d="m15 18 3.6-1.8-3.6-1.9v3.8Z" fill="#EA412C"/></svg>
